!!!OTL: 873. Beim hauben der Braut.
!!!ODT: 1839
!!!ARE: Europa, Mitteleuropa, Deutschland, Schlesien, Hainau, Konradsdorf
!!!SCT: E0873
!!!TXL: @@DE
!!!YEM: Copyright 1995, estate of Helmut Schaffrath.
**kern	**text
*ICvox	*
*M4/4	*
*met(c)	*
*k[b-]	*
*F:	*
!LO:TX:a:t=Mäßig bewegt.	!
!LO:TX:a:t=Aus Schleſien (Konradsdorf bei Hainau). 1839.	!
{8.cc	Braut,
16cc	wo
=1	=1
4.cc	iſt
8a	dein
8ffL	Kränʒ-
8eeJ	.
8ddL	-lein
8ccJ	.
=2	=2
4cc	hin?
4r	.
4r}	.
{8.a	es
16a	ſtand
=3	=3
4.g	gar
8g	ʒu
8eeL	nied-
8ddJ	.
8aL	-lich
8gJ	.
=4	=4
2a	grün;
4r}	.
{8.a	ach
16f	das
=5	=5
4e	Kränʒ-
4f	-chen
4g	geht
4b-/	dir
=6	=6
2b-	nah,
4r}	.
{8.ff	es
16dd	iſt
=7	=7
4.cc	lei-
8a	-der
8dL	nicht
8fJ	.
8eL	mehr
8gJ	.
=8	=8
2f	da.
4r}	.
==	==
!!!AGN: Hochzeits -, Ehestands - Lied
!!!ONB: ESAC (Essen Associative Code) Database: ERK2
!!!AMT: simple quadruple
!!!AIN: vox
!!!EED: Helmut Schaffrath
!!!EEV: 1.0
!!!GTL: Hochzeits- und Ehrstandslieder, nebst Nonnenklagen
!!!URL-scan: https://rosdok.uni-rostock.de/mcrviewer/recordIdentifier/rosdok_ppn745177662/iview2/phys_0670.iview2?x=193.8995864193107&y=1974.135217585601&scale=0.7029437510502773&rotation=0&layout=singlePageLayout
!!!ENC: Anna Maria Matuszewska
!!!EEV: 2024/12/18
*-	*-
